X: 244
T: Mrs Rose Faughsides
R: reel
M: C
L: 1/8
Z: 2012 John Chambers <jc:trillian.mit.edu>
B: J. Anderson "Budget of Strathspeys, Reels and Country Dances" (Early 1800s) p.25 #1
F: http://imslp.org/wiki/Anderson%27s_Budget_of_Strathspeys,_Reels_and_Country_Dances_(Various)
K: D
g | d2(Ad) FD A=c | BGAF Eeeg | fdce dAFD | GBAF Add :|
g | fdad bgaf | e=cgc egcg | fdad bgaf | (c/d/e) (Ag) fdd ||
g | fdad bgaf | e=cgc egcg | fdce dAFA | BGEg fdd |]

%%sep 2 1 500
%%sep 1 1 500

